icons/bag-circle-code.svg

<svg xmlns="http://www.w3.org/2000/svg" viewBox="0 0 24 24" fill="currentColor">
  <path d="M10.9803 2.70746c.2929.29289.2929.76776 0 1.06066L9.91064 4.8378l1.06966 1.06968c.2929.29289.2929.76777 0 1.06066s-.7678.29289-1.06066-.00001L8.71965 5.76812h-.00001c-.27247-.27248-.36966-.63146-.36966-.93032s.09719-.65785.36966-.93032h.00001l1.19999-1.20001c.29286-.2929.76776-.2929 1.06066-.00001ZM9.78031 4.96814v-.00001.00001Z"/>
  <path d="M13.0196 2.70746c.2929-.29289.7678-.29289 1.0607.00001l1.2 1.20001c.2724.27247.3696.63146.3696.93032s-.0972.65784-.3696.93032l-1.2 1.20001c-.2929.2929-.7678.2929-1.0607.00001-.2929-.29289-.2929-.76777 0-1.06066l1.0697-1.06968-1.0697-1.06968c-.2929-.2929-.2929-.76777 0-1.06066Zm1.2 2v.00001-.00001Z"/>
  <path d="M6.18035 4.90717c.2929.29289.2929.76777 0 1.06066-3.2071 3.20711-3.2071 8.43217 0 11.63927 3.20711 3.2071 8.43225 3.2071 11.63935 0 3.2071-3.2071 3.2071-8.43216 0-11.63927-.2929-.29289-.2929-.76777 0-1.06066s.7678-.29289 1.0607 0c3.7929 3.79289 3.7929 9.96773 0 13.76063-3.7929 3.7929-9.96781 3.7929-13.76071 0-3.79289-3.7929-3.79289-9.96774 0-13.76063.2929-.29289.76777-.29289 1.06066 0Z"/>
  <path d="M9.45004 11.5874c-1.18577 0-2.14999.9642-2.14999 2.15v5.2h-1.5v-5.2c0-2.0142 1.63577-3.65 3.64999-3.65H14.55c2.0143 0 3.65 1.6358 3.65 3.65v5.2h-1.5v-5.2c0-1.1858-.9642-2.15-2.15-2.15H9.45004Z"/>
  <path d="M9.44316 13.7845c.30534-.2799.77974-.2592 1.05964.0461.7905.8623 2.1963.897 3.1168-.0235.2929-.2929.7678-.2929 1.0607 0 .2929.2929.2929.7677 0 1.0606-1.4795 1.4795-3.8737 1.5142-5.28321-.0235-.27989-.3053-.25927-.7798.04607-1.0597Z"/>
</svg>

<svg width="24" height="24" viewBox="0 0 24 24" fill="none" xmlns="http://www.w3.org/2000/svg">
<path fill-rule="evenodd" clip-rule="evenodd" d="M10.9803 2.70746C11.2732 3.00035 11.2732 3.47522 10.9803 3.76812L9.91064 4.8378L10.9803 5.90748C11.2732 6.20037 11.2732 6.67525 10.9803 6.96814C10.6874 7.26103 10.2125 7.26103 9.91964 6.96813L8.71965 5.76812C8.71964 5.76812 8.71964 5.76812 8.71964 5.76812C8.44717 5.49564 8.34998 5.13666 8.34998 4.8378C8.34998 4.53894 8.44717 4.17995 8.71964 3.90748C8.71964 3.90748 8.71964 3.90748 8.71965 3.90748L9.91964 2.70747C10.2125 2.41457 10.6874 2.41457 10.9803 2.70746ZM9.78031 4.96814L9.78031 4.96813C9.78031 4.96813 9.78031 4.96813 9.78031 4.96814Z" fill="black"/>
<path fill-rule="evenodd" clip-rule="evenodd" d="M13.0196 2.70746C13.3125 2.41457 13.7874 2.41457 14.0803 2.70747L15.2803 3.90748C15.2803 3.90748 15.2803 3.90748 15.2803 3.90748C15.5527 4.17995 15.6499 4.53894 15.6499 4.8378C15.6499 5.13666 15.5527 5.49564 15.2803 5.76812C15.2803 5.76812 15.2803 5.76812 15.2803 5.76812L14.0803 6.96813C13.7874 7.26103 13.3125 7.26103 13.0196 6.96814C12.7267 6.67525 12.7267 6.20037 13.0196 5.90748L14.0893 4.8378L13.0196 3.76812C12.7267 3.47522 12.7267 3.00035 13.0196 2.70746ZM14.2196 4.70746L14.2196 4.70747C14.2196 4.70747 14.2196 4.70746 14.2196 4.70746Z" fill="black"/>
<path fill-rule="evenodd" clip-rule="evenodd" d="M6.18035 4.90717C6.47325 5.20006 6.47325 5.67494 6.18035 5.96783C2.97325 9.17494 2.97325 14.4 6.18035 17.6071C9.38746 20.8142 14.6126 20.8142 17.8197 17.6071C21.0268 14.4 21.0268 9.17494 17.8197 5.96783C17.5268 5.67494 17.5268 5.20006 17.8197 4.90717C18.1126 4.61428 18.5875 4.61428 18.8804 4.90717C22.6733 8.70006 22.6733 14.8749 18.8804 18.6678C15.0875 22.4607 8.91259 22.4607 5.11969 18.6678C1.3268 14.8749 1.3268 8.70006 5.11969 4.90717C5.41259 4.61428 5.88746 4.61428 6.18035 4.90717Z" fill="black"/>
<path fill-rule="evenodd" clip-rule="evenodd" d="M9.45004 11.5874C8.26427 11.5874 7.30005 12.5516 7.30005 13.7374V18.9374H5.80005V13.7374C5.80005 11.7232 7.43582 10.0874 9.45004 10.0874H14.55C16.5643 10.0874 18.2 11.7232 18.2 13.7374V18.9374H16.7V13.7374C16.7 12.5516 15.7358 11.5874 14.55 11.5874H9.45004Z" fill="black"/>
<path fill-rule="evenodd" clip-rule="evenodd" d="M9.44316 13.7845C9.7485 13.5046 10.2229 13.5253 10.5028 13.8306C11.2933 14.6929 12.6991 14.7276 13.6196 13.8071C13.9125 13.5142 14.3874 13.5142 14.6803 13.8071C14.9732 14.1 14.9732 14.5748 14.6803 14.8677C13.2008 16.3472 10.8066 16.3819 9.39709 14.8442C9.1172 14.5389 9.13782 14.0644 9.44316 13.7845Z" fill="black"/>
</svg>
